X:11
T:Planxty Irwin
M:3/4
K:D
A2|"D"d4 c2|"G"B3 c d2|"A"A4 G2|"D"F3 E D2|\
"G"G4 E2|"D"F3 G A2|"A"[c4C4] [d2D2]|[e4E4] A2|
"D"d4 c2|"G"B3 c d2|"A"A4 G2|"D"F3 E D2|\
"G"G4 E2|"D"F3 G A2|"A"D4 [E2C2]|"D"D4 A2||
"D"d4 d2|"G(Bm)"d3 c d2|"A(Em)"e3 f e2|"A"e2 c2 A2|\
"D(Bm)"f4 f2|"E7"e3 f d2|"A"c2 d2 B2|A3 B c2|
"D(G)"d4 c2|"G"B3 c d2|"A"A4 G2|"D"F3 E D2|\
"G"G4 E2|"D"F3 G A2|"A"D4 [E2C2]|"D"D4 |>|
